UI/Misc/SVG/car-wifi-on_outline_24px.svg

<svg width="24" height="24" viewBox="0 0 24 24" fill="none" xmlns="http://www.w3.org/2000/svg">
<path d="M22.0001 11H19.4501L18.5901 9.82C18.4037 9.57258 18.164 9.37036 17.8887 9.22839C17.6134 9.08642 17.3097 9.00835 17.0001 9L15.0001 11H17.0001L19.3301 14.18L20.0401 15.18V20H18.0001V18H6.00005V20H4.00005V15.16L4.71005 14.16L7.00005 11H9.00005L7.00005 9C6.69043 9.00835 6.38668 9.08642 6.11139 9.22839C5.83611 9.37036 5.59638 9.57258 5.41005 9.82L4.55005 11H2.00005V13H3.10005L2.33005 14.06C2.11312 14.348 1.99714 14.6995 2.00005 15.06V20C2.00005 20.5304 2.21077 21.0391 2.58584 21.4142C2.96091 21.7893 3.46962 22 4.00005 22H7.00005C7.26527 22 7.51962 21.8946 7.70716 21.7071C7.8947 21.5196 8.00005 21.2652 8.00005 21V20H16.0001V21C16.0001 21.2652 16.1054 21.5196 16.2929 21.7071C16.4805 21.8946 16.7348 22 17.0001 22H20.0001C20.5305 22 21.0392 21.7893 21.4143 21.4142C21.7893 21.0391 22.0001 20.5304 22.0001 20V15.06C22.003 14.6995 21.887 14.348 21.6701 14.06L20.9001 13H22.0001V11ZM18.0001 16H6.00005L7.50005 14H16.5001L18.0001 16ZM7.76005 7.76L9.17005 9.17C9.54155 8.7981 9.9827 8.50306 10.4683 8.30176C10.9539 8.10046 11.4744 7.99685 12.0001 7.99685C12.5257 7.99685 13.0462 8.10046 13.5318 8.30176C14.0174 8.50306 14.4586 8.7981 14.8301 9.17L16.2401 7.76C15.1151 6.6364 13.5901 6.00528 12.0001 6.00528C10.41 6.00528 8.88506 6.6364 7.76005 7.76ZM4.93005 4.93L6.35005 6.35C7.84978 4.8539 9.88168 4.0137 12.0001 4.0137C14.1184 4.0137 16.1503 4.8539 17.6501 6.35L19.0701 4.93C17.1948 3.05529 14.6517 2.00214 12.0001 2.00214C9.34841 2.00214 6.80533 3.05529 4.93005 4.93Z" fill="#0F1621"/>
</svg>

<svg xmlns="http://www.w3.org/2000/svg" width="24" height="24" viewBox="0 0 24 24"><rect width="24" height="24" style="fill:none"/><path d="M22,11H19.45l-.86-1.18A2.06,2.06,0,0,0,17,9l-2,2h2l2.33,3.18.71,1V20H18V18H6v2H4V15.16l.71-1L7,11H9L7,9a2.06,2.06,0,0,0-1.59.82L4.55,11H2v2H3.1l-.77,1.06a1.64,1.64,0,0,0-.33,1V20a2,2,0,0,0,2,2H7a1,1,0,0,0,1-1V20h8v1a1,1,0,0,0,1,1h3a2,2,0,0,0,2-2V15.06a1.64,1.64,0,0,0-.33-1L20.9,13H22Zm-4,5H6l1.5-2h9ZM7.76,7.76,9.17,9.17a4,4,0,0,1,5.66,0l1.41-1.41a6,6,0,0,0-8.48,0ZM4.93,4.93,6.35,6.35a8,8,0,0,1,11.3,0l1.42-1.42a10,10,0,0,0-14.14,0Z"/></svg>
